X:6648
T:The Connaughtman's Rambles
O:england
M:6/8
L:1/8
Q:1/4=190
C:Trad
R:jig
K:D
FAA dAA|BAB dAG|FAA dfe|dBB B2 A|
FAA dAA|BAB def|gfe dfe|[1dBB B2 A:|[2dBB B2|
|:e|fbb faa|fef def|fbb faa|fed e2 e|
fbb faa|fef def|gfe dfe|dBB B2:|


